back/static/map/factory/factory.svg

<svg xmlns="http://www.w3.org/2000/svg" width="24" height="24" viewBox="0 0 24 24">
    <path fill="black" d="M22 10v12H2V10l7-3v2l5-2v3zm-4.8-1.5L18 2h3l.8 6.5zM11 18h2v-4h-2zm-4 0h2v-4H7zm10-4h-2v4h2z"/>
</svg>

<svg width="24" height="24" viewBox="0 0 24 24" xmlns="http://www.w3.org/2000/svg">
  <path fill="black" d="M 22 10 L 22 22 L 2 22 L 2 10 L 9 7 L 9 9 L 14 7 L 14 10 L 16.952 10 L 17.994 2.061 L 21.221 2.052 L 22 10 Z M 11 18 L 13 18 L 13 14 L 11 14 L 11 18 Z M 7 18 L 9 18 L 9 14 L 7 14 L 7 18 Z M 17 14 L 15 14 L 15 18 L 17 18 L 17 14 Z"/>
</svg>
